X: 20843
M: 2/4
L: 1/16
K: F
V: 1 name="3"
fg |\
a2gf g2fe | f2d2 c2A2 | f2d2 c3d | A2G2 G2fg |\
a2gf g2fe | f2d2 c2A2 | f3e dcBA | GFEF Gdc"^D.C."B |]
c2 |\
f2f2 f2ef | g2g2 g2ag | fedc =Bcde | f2d2 c2A2 |\
f2f2 f2ef | g2ba gfed | c2A2 G2F2 | A2G2"^D.C."G2 |]


